X:1
T:Title
%%score { ( 1 3 ) | ( 2 4 ) }
L:1/8
M:4/4
K:Eb
V:1 treble nm="Grand Piano"
V:3 treble 
V:2 bass 
V:4 bass 
V:1
 z4 z2[Q:1/4=100] E>F | G2 G2 G2 G2 | [GB]4 [EG]2 [FA]>[EG] | [DF]2 [DF]2 [EG]2 [FA]2 |[M:3/4] G6 | %5
[M:1/4] E>F |[M:4/4] G2 G2 G2 G2 | [GB]4 [B,EG]2 [B,FA]>[B,EG] | [B,DF]2 [B,DF]2 [B,EG]2 [A,DF]2 | %9
[M:3/4] [G,E]6 |[M:1/4] B>B |[M:4/4] c6 z2 | B6 z2 | [FA]2 [FA]2 [EG]2 [DF]2 |[M:3/4] G6 | %15
[M:1/4] B>B |[M:4/4] c6 z2 | B6 z2 | [B,FA]2 [B,FA]2 [B,EG]2 [A,DF]2 |[M:3/4] [G,E]6 |] %20
V:2
 z4 z2 [E,G,B,]>[E,A,B,] | [E,B,E]2 [E,B,E]2 [E,B,E]2 [E,B,E]2 | [E,E]4 [E,B,]2 [E,B,]>[E,B,] | %3
 [B,,B,]2 [B,,B,]2 [B,,B,]2 [B,,B,]2 |[M:3/4] [E,B,E]6 |[M:1/4] [E,G,B,]>[E,A,B,] | %6
[M:4/4] [E,B,E]2 [E,B,E]2 [E,B,E]2 [E,B,E]2 | E,4 E,2 E,>E, | B,,2 B,,2 B,,2 B,,2 |[M:3/4] E,6 | %10
[M:1/4][K:treble] G>G |[M:4/4] A6 z2 | G6[K:bass] z2 | [B,,B,]2 [B,,B,]2 [B,,B,]2 [B,,B,]2 | %14
[M:3/4] [E,B,E]6 |[M:1/4][K:treble] G>G |[M:4/4] A6 z2 | G6[K:bass] z2 | B,,2 B,,2 B,,2 B,,2 | %19
[M:3/4] E,6 |] %20
V:3
 x8 | x8 | x8 | x8 |[M:3/4] x6 |[M:1/4] x2 |[M:4/4] x8 | x8 | x8 |[M:3/4] x6 |[M:1/4] x2 | %11
[M:4/4] z2 E>E E2 e>c | z2 E>E E2 G>[GB] | x8 |[M:3/4] x6 |[M:1/4] x2 |[M:4/4] z2 E>E E2 e>c | %17
 z2 E>E E2 [B,EG]>[B,GB] | x8 |[M:3/4] x6 |] %20
V:4
 x8 | x8 | x8 | x8 |[M:3/4] x6 |[M:1/4] x2 |[M:4/4] x8 | x8 | x8 |[M:3/4] x6 | %10
[M:1/4][K:treble] x2 |[M:4/4] z2 A,>A, A,2 c>A | z2[K:bass] E,>E, E,2 [E,B,E]>[E,B,] | x8 | %14
[M:3/4] x6 |[M:1/4][K:treble] x2 |[M:4/4] z2 A,>A, A,2 c>A | z2[K:bass] E,>E, E,2 E,>E, | x8 | %19
[M:3/4] x6 |] %20

